X:30
T:Tythe pig - helmore
C:Taken down from J. Helmore, Sth. Brent, Nov. 1888 by F.W.B.
%%VWML:SBG-1-1-151-0
F:http://www.vwml.org/record/SBG/1/1/151
Z:Original Sibleius Transcription by Martin and Shan Graebe
L:1/8
M:4/4
I:linebreak $
K:F
z4 z3 c | c B A G F G A A | G E F D C3 c | c B A G F G A A | G E F D C3 c |$ c c c c d c c c | 
d c c A G3 G | A B c A B d3/2 d/ | c B A G F3 C |$ D E F D E G z G | A c c3/2 d/ c3 c | 
d c c A A F3/2 F/ | A G F E F4 |] 
 X:1
T:Bonny blue handkerchief- woodrich
C:Taken down from J. Woodrich by F.W.Bussell, Nov. 1888.
%%VWML:SBG-1-1-180-0
F:http://www.vwml.org/record/SBG/1/1/180
Z:Original Sibleius Transcription by Martin and Shan Graebe
M:6/8
L:1/8
K:C
C/D/ | CCA GED | CCD C2E | EED DGA | BGAG2E/G/ | 
GEG A/B/ c c/B/ |AGED2C/E/ | GG c/B/ A/G/E G, | G,B,D/F/C2 |
T:Bonny blue handkerchief- parsons
T:Taken down by me in Oct. 1888 from Parsons (?)
M:2/4
L:1/16
K:G
D2 | G2GA B2AG | D2ED G2>D2 | E2FG A2EA | d2AB G2>G2 A | 
B2BG A2dd |c2BB d2>G2 A | B2dB e2dB | G2AF G6 |
T:Bonny blue handkerchief- barrett
T:Tune to “Paul Jones” in Barrett’s “English Folk Songs” 1891; No. 33.
M:3/4
L:1/8
K:C
CE | G2 G2 c2 | A2 G2 C>D | D2 C2 C2 | C4 ED | C2 E2 G2 |c4 d>c | B2 G2 G2 | G4 G2 | 
G2 E2 G2 |AB c2 A2 | G2 E2 C2 | D4 CE | G2 G2 c2 |A2 G2 C>D | D2 C2 C2 | C4 |
T:Bonny blue handkerchief- fone
T:Taken down to “Paul Jones” from Saml. Fone, by F.W.B. July. 1893.
M:3/4
L:1/8
K:Ddor
D2 | F2 A2 B2 | B2 A2 D2 | E2 D2 D2 | D4 D2 | E2 D2 E2 |G2 F2 F^G | A2 c2 B2 | A4 A2 | 
B2 G2 B2 |c4 ed | dc B2 A2 | d4 DF | A2 A2 Bc |B2 A2 D2 | E2 D2 D2 | D6 |


